img/services/07.svg

<svg width="31" height="40" viewBox="0 0 31 40" fill="none" xmlns="http://www.w3.org/2000/svg">
<path d="M30.2948 9.97837H13.4752C12.9047 9.41933 12.1817 9.04118 11.3971 8.89134C10.6125 8.74151 9.80112 8.82665 9.06469 9.1361C8.32827 9.44555 7.6996 9.96552 7.25751 10.6308C6.81542 11.2961 6.57959 12.0771 6.57959 12.8759C6.57959 13.6747 6.81542 14.4557 7.25751 15.1211C7.6996 15.7864 8.32827 16.3063 9.06469 16.6158C9.80112 16.9252 10.6125 17.0104 11.3971 16.8605C12.1817 16.7107 12.9047 16.3325 13.4752 15.7735H30.2948C30.4485 15.7735 30.5959 15.7125 30.7046 15.6038C30.8133 15.4951 30.8744 15.3477 30.8744 15.194V10.5579C30.8744 10.4042 30.8133 10.2568 30.7046 10.1481C30.5959 10.0394 30.4485 9.97837 30.2948 9.97837Z" fill="white"/>
<path d="M15.6599 0.729492H4.22794C3.46996 0.729492 2.74302 1.0306 2.20704 1.56658C1.67107 2.10256 1.36996 2.8295 1.36996 3.58749L0.82373 36.4132C0.82373 37.1712 1.12484 37.8981 1.66082 38.4341C2.19679 38.9701 2.92374 39.2712 3.68172 39.2712H15.1137C15.8717 39.2712 16.5986 38.9701 17.1346 38.4341C17.6706 37.8981 17.9717 37.1712 17.9717 36.4132L18.5179 17.8775H14.6975C13.3794 18.9422 11.6944 19.4438 10.0086 19.273C8.32288 19.1023 6.77264 18.2732 5.69482 16.9658C4.98782 16.1089 4.51488 15.0834 4.32209 13.9893C4.12931 12.8953 4.22325 11.7699 4.59476 10.7229C4.96627 9.67598 5.60268 8.74312 6.44196 8.01527C7.28125 7.28743 8.29477 6.78943 9.38377 6.56981C9.80371 6.48773 10.2305 6.4461 10.6584 6.44549C12.129 6.44238 13.5555 6.94716 14.6968 7.87449H18.5179V3.58749C18.5179 2.8295 18.2168 2.10256 17.6808 1.56658C17.1448 1.0306 16.4179 0.729492 15.6599 0.729492ZM9.39771 24.2667C10.0258 24.2637 10.6373 24.4688 11.1367 24.8497C11.6361 25.2307 11.9953 25.7662 12.1585 26.3728C12.3216 26.9794 12.2795 27.6229 12.0386 28.203C11.7977 28.7831 11.3715 29.2672 10.8267 29.5797V32.8407C10.8267 33.0302 10.7514 33.2119 10.6174 33.3459C10.4834 33.4799 10.3017 33.5552 10.1122 33.5552H8.68321C8.49371 33.5552 8.31198 33.4799 8.17798 33.3459C8.04399 33.2119 7.96871 33.0302 7.96871 32.8407V29.5797C7.42386 29.2672 6.99776 28.7831 6.75685 28.203C6.51595 27.6229 6.47378 26.9794 6.63692 26.3728C6.80006 25.7662 7.15935 25.2307 7.65875 24.8497C8.15815 24.4688 8.76959 24.2637 9.39771 24.2667Z" fill="white"/>
</svg>

<svg width="31" height="40" viewBox="0 0 31 40" fill="none" xmlns="http://www.w3.org/2000/svg"><path d="M30.295 9.978h-16.82a4.056 4.056 0 100 5.796h16.82a.58.58 0 00.58-.58v-4.636a.58.58 0 00-.58-.58z" fill="#fff"/><path d="M15.66.73H4.228A2.858 2.858 0 001.37 3.586L.824 36.413a2.858 2.858 0 002.858 2.858h11.432a2.858 2.858 0 002.858-2.858l.546-18.535h-3.82a6.43 6.43 0 11-.001-10.004h3.82V3.587A2.858 2.858 0 0015.66.73zM9.398 24.266a2.845 2.845 0 011.429 5.313v3.26a.714.714 0 01-.715.715H8.683a.715.715 0 01-.714-.714v-3.26a2.845 2.845 0 011.429-5.313z" fill="#fff"/></svg>
